X:1
T:Title
%%score { ( 1 3 ) | ( 2 4 ) }
L:1/8
M:4/4
K:F
V:1 treble nm="Grand Piano"
V:3 treble 
V:2 bass 
V:4 bass 
V:1
 z4 z2[Q:1/4=100] F>G | A2 A2 A2 G>F | c2 [CAc]2 [FAc]2 z z/ G/ | A6 z2 | [EG]6 z2 | A2 A2 A2 G>F | %6
 c2 [CAc]2 [FAc]2 A>A | G6 z2 |[M:3/4] [A,F]6 |[M:1/4] [Ac]>[Ac] | %10
[M:4/4] [Af]2 [Af]2 [ce]>[EBd] [FAc]>[DGB] | [CFA]2 [FAc]2 [FAc]2 A>A | G6 z2 | [FA]6 z2 | %14
 [Af]2 [Af]2 [ce]>[EBd] [FAc]>[DGB] | [CFA]2 [FAc]2 [FAc]2 A>A | G6 z2 |[M:3/4] F6 |] %18
V:2
 z4 z2 [F,A,C]>[F,B,C] | [F,CF]2 [F,CF]2 [F,CF]2 [F,B,C]>[F,A,C] | [F,A,F]2 F,2 F,2[K:treble] F>F | %3
 F6[K:bass] z2 | C,2 C,C, C,2 [F,A,]>[F,B,F] | [F,CF]2 [F,CF]2 [F,CF]2 [F,B,C]>[F,A,C] | %6
 [F,A,F]2 F,2 F,2[K:treble] F>F | E6[K:bass] z2 |[M:3/4] F,6 |[M:1/4] [F,F]>[F,F] | %10
[M:4/4] [F,C]2 [F,C]2 [F,D]>F, F,>F, | F,2 F,2 F,2[K:treble] F>F | E6[K:bass] z2 | %13
 F,2 F,F, F,2 [F,F]>[F,F] | [F,C]2 [F,C]2 [F,D]>F, F,>F, | F,2 F,2 F,2[K:treble] F>F | %16
 E6[K:bass] z2 |[M:3/4] z C B,B, A,2 |] %18
V:3
 x8 | x8 | x8 | z2 CC C[CFA][CGB][CFA] | C2 CC C2 F>G | x8 | x8 | z2 CC C[CGB][CFA][B,EG] | %8
[M:3/4] x6 |[M:1/4] x2 |[M:4/4] x8 | x8 | z2 CC C[CGB][CFA][CEG] | C2 CC C2 [Ac]>[Ac] | x8 | x8 | %16
 z2 CC C[CGB][CFA][B,EG] |[M:3/4] A,2 DD C2 |] %18
V:4
 x8 | x8 | x6[K:treble] x2 | z2[K:bass] F,F, F,F,E,F, | x8 | x8 | x6[K:treble] x2 | %7
 z2[K:bass] C,C, C,C,C,C, |[M:3/4] x6 |[M:1/4] x2 |[M:4/4] x8 | x6[K:treble] x2 | %12
 z2[K:bass] C,C, C,C,C,C, | x8 | x8 | x6[K:treble] x2 | z2[K:bass] C,C, C,C,C,C, |[M:3/4] F,6 |] %18

